X:134
T: HIER TRETEN WIR HER
N: E1201
O: Europa, Mitteleuropa, Deutschland, Schleswig, Nord - Friesland
R: Ansinge -, Brauchtums - Lied, Kirchen - Fest, Heilige drei Koenige
M: 3/4
L: 1/8
K: F
C2 | F4E2 | F4F2 | F2A2GE | F4
GA | B3GcB | A3GF2 | G3FE2 | F4
GA | B3GcB | A3GF2 | G3FE2 | F4

@@@ Tune index: 4818
